lib/assets/graphics/flags/tz.svg

<svg width="33" height="33" viewBox="0 0 33 33" fill="none" xmlns="http://www.w3.org/2000/svg">
<path d="M32.7758 16.9757C32.7758 8.13918 25.6123 0.975739 16.7758 0.975739C7.9392 0.975739 0.775757 8.13918 0.775757 16.9757C0.775757 25.8123 7.9392 32.9757 16.7758 32.9757C25.6123 32.9757 32.7758 25.8123 32.7758 16.9757Z" fill="#FCD116"/>
<mask id="mask0" mask-type="alpha" maskUnits="userSpaceOnUse" x="0" y="0" width="33" height="33">
<path d="M32.7758 16.9757C32.7758 8.13918 25.6123 0.975739 16.7758 0.975739C7.9392 0.975739 0.775757 8.13918 0.775757 16.9757C0.775757 25.8123 7.9392 32.9757 16.7758 32.9757C25.6123 32.9757 32.7758 25.8123 32.7758 16.9757Z" fill="white"/>
</mask>
<g mask="url(#mask0)">
<path fill-rule="evenodd" clip-rule="evenodd" d="M16.9515 39.4617L39.5789 16.8343L33.922 11.1775L11.2946 33.8049L16.9515 39.4617Z" fill="#00A3DD"/>
<path fill-rule="evenodd" clip-rule="evenodd" d="M9.1733 31.6836L31.8007 9.05614L24.7297 1.98507L2.10223 24.6125L9.1733 31.6836Z" fill="black"/>
<path fill-rule="evenodd" clip-rule="evenodd" d="M-0.0191102 22.4912L22.6083 -0.136242L16.9515 -5.7931L-5.67596 16.8343L-0.0191102 22.4912Z" fill="#1EB53A"/>
</g>
</svg>

<svg enable-background="new 0 0 33 33" viewBox="0 0 33 33" xmlns="http://www.w3.org/2000/svg" xmlns:xlink="http://www.w3.org/1999/xlink">
    <clipPath id="a">
        <path d="m32.8 17c0-8.8-7.2-16-16-16s-16 7.2-16 16 7.2 16 16 16 16-7.2 16-16z"/>
    </clipPath>
    <mask id="b" height="45.3" maskUnits="userSpaceOnUse" width="45.3" x="-5.7" y="-5.8">
        <path clip-path="url(#a)" d="m32.8 17c0-8.8-7.2-16-16-16s-16 7.2-16 16 7.2 16 16 16 16-7.2 16-16z" fill="#fff"/>
    </mask>
    <path d="m32.8 17c0-8.8-7.2-16-16-16s-16 7.2-16 16 7.2 16 16 16 16-7.2 16-16z" fill="#fcd116"/>
    <g clip-path="url(#a)" clip-rule="evenodd" fill-rule="evenodd" mask="url(#b)">
        <path d="m17 39.5 22.6-22.6-5.7-5.7-22.6 22.6z" fill="#00a3dd"/>
        <path d="m9.2 31.7 22.6-22.6-7.1-7.1-22.6 22.6c-1.5 1.5 7.1 7.1 7.1 7.1z"/>
        <path d="m0 22.5 22.6-22.6-5.6-5.7-22.7 22.6z" fill="#1eb53a"/>
    </g>
</svg>
